X: 15
T: Planxty Lady Wrixon
R: planxty
M: 6/8
L: 1/8
K: Ador
f    | "Am" e2A cBA      | e2A efg           | "G" d2G BAG      | d2G Bcd           |
       "Am" e2A cBA      | e2A efg           | "G" d2B g2B      | "Am" BAA A2    :|
|: e | "Am" a2a "Em" bge | "Am" a2a "Em" bge | "G" g2g "D" faf  | "G" gBG "C" e2g   |
       "D" faf "C" ege   | "D" dfd "Am" cec  | "G" BdB "Em" BgB | "Am"  BAA A2   :|



